; generated by PrusaSlicer 2.9.3 on 2025-10-08 at 15:18:20 UTC


;
;
; 

; external perimeters extrusion width = 0.45mm
; perimeters extrusion width = 0.45mm
; infill extrusion width = 0.45mm
; solid infill extrusion width = 0.45mm
; top infill extrusion width = 0.40mm
; support material extrusion width = 0.35mm
; first layer extrusion width = 0.42mm

M73 P0 R40
M73 Q0 S40
M201 X1000 Y1000 Z200 E5000 ; sets maximum accelerations, mm/sec^2
M203 X200 Y200 Z12 E120 ; sets maximum feedrates, mm / sec
M204 S1250 T1250 ; sets acceleration (S) and retract acceleration (R), mm/sec^2
M205 X8.00 Y8.00 Z0.40 E4.50 ; sets the jerk limits, mm/sec
M205 S0 T0 ; sets the minimum extruding and travel feed rate, mm/sec

; printing object tesseract.stl id:0 copy 0
; stop printing object tesseract.stl id:0 copy 0

;TYPE:Custom
M862.3 P "MK3S" ; printer model check
M862.1 P0.4 ; nozzle diameter check
M115 U3.14.1 ; tell printer latest fw version
G90 ; use absolute coordinates
M83 ; extruder relative mode
M104 S215 ; set extruder temp
M140 S60 ; set bed temp
M190 S60 ; wait for bed temp
M109 S215 ; wait for extruder temp
G28 W ; home all without mesh bed level
G80 X103.617 Y83.7332 W42.8149 H41.9341 ; mesh bed levelling

G1 Z0.2 F720
G1 Y-3 F1000 ; go outside print area
G92 E0
G1 X60 E9 F1000 ; intro line
G1 X100 E12.5 F1000 ; intro line

G92 E0
M221 S95

; Don't change E values below. Excessive value can damage the printer.
M907 E430 ; set extruder motor current
G21 ; set units to millimeters
G90 ; use absolute coordinates
M83 ; use relative distances for extrusion

M900 K0.05 ; Filament gcode LA 1.5
M900 K30 ; Filament gcode LA 1.0




M107
;LAYER_CHANGE
;Z:0.2
;HEIGHT:0.2
G1 E-.8 F2100
G1 Z.6 F720
G1 X109.922 Y90.423 F10800
G1 Z.2 F720
G1 E.8 F2100
M204 S800
;TYPE:Skirt/Brim
;WIDTH:0.42
G1 F1200
G1 X111.219 Y89.318 E.05342
G1 X111.749 Y88.984 E.01964
G1 X122.393 Y84.408 E.36327
G1 X124.134 Y83.967 E.05631
G1 X125.726 Y83.927 E.04993
G1 X127.689 Y84.339 E.06289
G1 X137.717 Y88.718 E.34309
G1 X139.206 Y89.614 E.05449
G1 X139.75 Y90.092 E.02271
G1 X140.83 Y91.418 E.05362
G1 X141.125 Y91.892 E.01751
G1 X145.547 Y101.589 E.33416
G1 X146.069 Y103.167 E.05211
G1 X146.243 Y104.82 E.05212
G1 X146.067 Y106.452 E.05147
G1 X145.559 Y107.993 E.05087
G1 X141.557 Y117.191 E.31451
G1 X140.567 Y118.98 E.06411
G1 X140.078 Y119.576 E.02417
G1 X138.781 Y120.682 E.05344
G1 X138.251 Y121.016 E.01964
G1 X136.796 Y121.66 E.04989
G1 X127.702 Y125.141 E.30531
G1 X126.096 Y125.452 E.05129
G1 X124.196 Y125.39 E.0596
G1 X122.814 Y125.022 E.04484
G1 X112.424 Y121.338 E.34564
G1 X110.794 Y120.386 E.05919
G1 X110.25 Y119.908 E.02271
G1 X109.17 Y118.583 E.0536
G1 X108.86 Y118.073 E.01871
G1 X104.39 Y107.789 E.35159
G1 X103.929 Y106.207 E.05167
G1 X103.805 Y104.541 E.05238
G1 X103.925 Y103.415 E.0355
G1 X104.395 Y101.797 E.05283
G1 X108.454 Y92.784 E.30993
G1 X109.433 Y91.02 E.06326
G1 X109.884 Y90.47 E.0223
M204 S1000
;WIPE_START
G1 F8640
G1 X109.922 Y90.423 E-.01396
G1 X111.219 Y89.318 E-.39343
G1 X111.749 Y88.984 E-.14465
G1 X112.736 Y88.56 E-.24796
;WIPE_END
G1 Z.6 F720
G1 X111.658 Y92.285 F10800
G1 Z.2 F720
G1 E.8 F2100
M204 S800
G1 F1200
G1 X112.549 Y91.455 E.03818
G1 X113.326 Y90.982 E.02852
G1 X115.149 Y90.526 E.05892
G1 X134.865 Y90.526 E.61818
G1 X136.68 Y90.985 E.0587
G1 X137.332 Y91.368 E.02371
G1 X137.948 Y91.849 E.0245
G1 X139.023 Y93.344 E.05773
G1 X139.461 Y95.065 E.05568
G1 X139.474 Y114.808 E.61903
G1 X139.149 Y116.347 E.04932
G1 X138.342 Y117.715 E.0498
G1 X137.451 Y118.545 E.03818
G1 X136.674 Y119.018 E.02852
G1 X134.851 Y119.474 E.05892
G1 X115.172 Y119.474 E.61702
G1 X113.653 Y119.149 E.04871
G1 X112.294 Y118.349 E.04945
G1 X111.409 Y117.384 E.04105
G1 X110.935 Y116.571 E.02951
G1 X110.526 Y114.825 E.05623
G1 X110.526 Y95.192 E.61558
G1 X110.851 Y93.653 E.04932
G1 X111.628 Y92.337 E.04792
M204 S1000
G1 X111.951 Y92.53 F10800
M204 S800
G1 F1200
G1 X111.967 Y92.503 E.00098
G1 X112.79 Y91.746 E.03506
G1 X113.496 Y91.32 E.02585
G1 X115.171 Y90.903 E.05412
G1 X134.841 Y90.904 E.61674
G1 X136.512 Y91.324 E.05402
G1 X137.694 Y92.129 E.04484
G1 X138.679 Y93.5 E.05293
G1 X139.088 Y95.125 E.05254
G1 X139.097 Y114.788 E.61652
G1 X138.787 Y116.237 E.04646
G1 X138.033 Y117.497 E.04604
G1 X137.21 Y118.254 E.03506
G1 X136.504 Y118.68 E.02585
G1 X134.829 Y119.097 E.05412
G1 X115.193 Y119.097 E.61567
G1 X113.764 Y118.787 E.04585
G1 X112.512 Y118.04 E.04571
G1 X111.702 Y117.146 E.03782
G1 X111.275 Y116.407 E.02676
G1 X110.903 Y114.803 E.05163
G1 X110.903 Y95.212 E.61426
G1 X111.213 Y93.763 E.04646
M73 P1 R40
M73 Q1 S40
G1 X111.92 Y92.581 E.04318
M204 S1000
G1 X112.244 Y92.775 F10800
M204 S800
G1 F1200
G1 X112.276 Y92.721 E.00197
G1 X113.029 Y92.038 E.03188
G1 X113.665 Y91.658 E.02323
G1 X115.194 Y91.28 E.04938
G1 X134.818 Y91.281 E.6153
G1 X136.345 Y91.663 E.04935
G1 X137.44 Y92.408 E.04153
G1 X138.335 Y93.658 E.0482
G1 X138.715 Y95.185 E.04934
G1 X138.72 Y114.769 E.61404
G1 X138.447 Y116.071 E.04171
G1 X137.724 Y117.279 E.04414
G1 X136.972 Y117.962 E.03185
G1 X136.335 Y118.342 E.02326
G1 X134.806 Y118.72 E.04938
G1 X115.214 Y118.72 E.61429
G1 X113.876 Y118.425 E.04296
G1 X112.732 Y117.733 E.04192
G1 X111.997 Y116.911 E.03457
G1 X111.617 Y116.245 E.02404
G1 X111.28 Y114.782 E.04707
G1 X111.28 Y95.231 E.61301
G1 X111.553 Y93.929 E.04171
G1 X112.213 Y92.827 E.04028
M204 S1000
G1 X112.534 Y93.022 F10800
M204 S800
G1 F1200
G1 X112.583 Y92.942 E.00294
G1 X113.265 Y92.332 E.02869
G1 X113.832 Y91.997 E.02065
G1 X115.217 Y91.657 E.04472
G1 X134.795 Y91.658 E.61385
G1 X136.178 Y92.002 E.04468
G1 X137.185 Y92.688 E.0382
G1 X137.993 Y93.817 E.04353
G1 X138.343 Y95.246 E.04613
G1 X138.343 Y114.749 E.6115
G1 X138.085 Y115.96 E.03882
M73 P1 R39
G1 X137.417 Y117.058 E.0403
G1 X136.735 Y117.668 E.02869
G1 X136.168 Y118.003 E.02065
G1 X134.783 Y118.343 E.04472
G1 X115.233 Y118.343 E.61298
G1 X114.044 Y118.086 E.03814
G1 X112.953 Y117.425 E.04
G1 X112.294 Y116.677 E.03126
G1 X111.959 Y116.084 E.02135
G1 X111.657 Y114.761 E.04255
G1 X111.657 Y95.251 E.61172
G1 X111.915 Y94.04 E.03882
G1 X112.503 Y93.073 E.03548
M204 S1000
G1 X112.822 Y93.271 F10800
M204 S800
G1 F1200
G1 X112.888 Y93.165 E.00392
G1 X113.499 Y92.628 E.0255
G1 X113.998 Y92.337 E.01811
G1 X115.239 Y92.034 E.04005
G1 X134.773 Y92.035 E.61247
G1 X136.012 Y92.342 E.04002
G1 X136.931 Y92.967 E.03485
G1 X137.652 Y93.978 E.03893
G1 X137.966 Y95.267 E.0416
G1 X137.966 Y114.728 E.61019
G1 X137.724 Y115.848 E.03593
G1 X137.112 Y116.835 E.03641
G1 X136.501 Y117.372 E.0255
G1 X136.002 Y117.663 E.01811
G1 X134.761 Y117.966 E.04005
G1 X115.254 Y117.966 E.61163
G1 X114.157 Y117.725 E.03522
G1 X113.176 Y117.121 E.03612
G1 X112.592 Y116.446 E.02799
G1 X112.301 Y115.925 E.01871
G1 X112.034 Y114.74 E.03809
G1 X112.034 Y95.272 E.61041
G1 X112.276 Y94.152 E.03593
G1 X112.791 Y93.322 E.03063
M204 S1000
G1 X113.108 Y93.523 F10800
M204 S800
G1 F1200
G1 X113.19 Y93.392 E.00485
G1 X113.731 Y92.926 E.02239
G1 X114.162 Y92.677 E.01561
G1 X115.261 Y92.411 E.03545
G1 X134.75 Y92.412 E.61106
G1 X135.848 Y92.682 E.03545
G1 X136.676 Y93.247 E.03143
G1 X137.312 Y94.143 E.03445
G1 X137.589 Y95.288 E.03694
G1 X137.589 Y114.708 E.6089
G1 X137.363 Y115.734 E.03294
G1 X136.81 Y116.608 E.03243
G1 X136.269 Y117.074 E.02239
G1 X135.838 Y117.323 E.01561
G1 X134.739 Y117.589 E.03545
G1 X115.275 Y117.589 E.61028
G1 X114.272 Y117.365 E.03222
G1 X113.403 Y116.818 E.0322
G1 X112.893 Y116.218 E.02469
G1 X112.645 Y115.767 E.01614
G1 X112.411 Y114.72 E.03364
G1 X112.411 Y95.292 E.60915
G1 X112.637 Y94.266 E.03294
G1 X113.075 Y93.574 E.02568
M204 S1000
G1 X113.394 Y93.775 F10800
M204 S800
G1 F1200
G1 X113.493 Y93.619 E.00579
G1 X114.325 Y93.018 E.03218
G1 X115.283 Y92.789 E.03088
G1 X134.728 Y92.789 E.60968
G1 X135.684 Y93.023 E.03086
M73 Q1 S39
G1 X136.421 Y93.526 E.02798
G1 X136.99 Y94.346 E.03129
G1 X137.211 Y95.31 E.03101
G1 X137.211 Y114.689 E.60761
G1 X137.026 Y115.561 E.02795
G1 X136.507 Y116.381 E.03043
G1 X135.675 Y116.982 E.03218
G1 X134.717 Y117.211 E.03088
G1 X115.296 Y117.211 E.60893
G1 X114.389 Y117.005 E.02916
G1 X113.632 Y116.518 E.02822
G1 X113.195 Y115.992 E.02144
G1 X112.989 Y115.612 E.01355
G1 X112.789 Y114.7 E.02927
G1 X112.789 Y95.311 E.60793
G1 X112.974 Y94.439 E.02795
M73 P2 R39
M73 Q2 S39
G1 X113.362 Y93.826 E.02275
M204 S1000
G1 X113.675 Y94.03 F10800
M204 S800
G1 F1200
G1 X113.792 Y93.851 E.0067
G1 X114.486 Y93.36 E.02666
G1 X115.305 Y93.166 E.02639
G1 X134.705 Y93.166 E.60827
G1 X135.523 Y93.364 E.02639
G1 X136.165 Y93.804 E.0244
G1 X136.635 Y94.485 E.02594
G1 X136.834 Y95.332 E.02728
G1 X136.834 Y114.668 E.60627
G1 X136.665 Y115.446 E.02496
G1 X136.208 Y116.149 E.02629
G1 X135.514 Y116.64 E.02666
G1 X134.695 Y116.834 E.02639
G1 X115.316 Y116.834 E.60761
G1 X114.564 Y116.669 E.02414
G1 X113.863 Y116.218 E.02614
G1 X113.335 Y115.459 E.02899
G1 X113.166 Y114.68 E.02499
G1 X113.166 Y95.332 E.60664
G1 X113.335 Y94.554 E.02496
G1 X113.643 Y94.08 E.01772
M204 S1000
G1 X113.956 Y94.279 F10800
M204 S800
G1 F1200
G1 X114.055 Y94.123 E.00579
G1 X114.644 Y93.703 E.02268
G1 X115.327 Y93.543 E.02199
G1 X134.683 Y93.543 E.60689
G1 X135.363 Y93.706 E.02192
G1 X135.908 Y94.082 E.02076
G1 X136.302 Y94.665 E.02206
G1 X136.457 Y95.352 E.02208
G1 X136.457 Y114.65 E.60508
G1 X136.328 Y115.274 E.01998
G1 X135.945 Y115.877 E.0224
G1 X135.356 Y116.297 E.02268
G1 X134.673 Y116.457 E.02199
G1 X115.338 Y116.457 E.60624
G1 X114.682 Y116.309 E.02109
G1 X114.099 Y115.922 E.02194
G1 X113.681 Y115.308 E.02329
G1 X113.543 Y114.66 E.02077
G1 X113.543 Y95.35 E.60545
G1 X113.672 Y94.726 E.01998
G1 X113.924 Y94.329 E.01474
M204 S1000
G1 X114.235 Y94.534 F10800
M204 S800
G1 F1200
G1 X114.351 Y94.358 E.00661
G1 X114.8 Y94.047 E.01713
G1 X115.348 Y93.92 E.01764
G1 X134.661 Y93.92 E.60555
G1 X135.205 Y94.05 E.01754
G1 X135.65 Y94.358 E.01697
G1 X135.967 Y94.841 E.01811
G1 X136.08 Y95.371 E.01699
G1 X136.08 Y114.629 E.60382
G1 X135.967 Y115.159 E.01699
G1 X135.649 Y115.642 E.01813
G1 X135.2 Y115.953 E.01713
G1 X134.652 Y116.08 E.01764
G1 X115.356 Y116.08 E.60501
G1 X114.856 Y115.973 E.01603
G1 X114.375 Y115.663 E.01794
G1 X114.029 Y115.161 E.01912
G1 X113.92 Y114.641 E.01666
G1 X113.92 Y95.371 E.6042
G1 X114.033 Y94.841 E.01699
G1 X114.202 Y94.584 E.00964
M204 S1000
G1 X114.515 Y94.783 F10800
M204 S800
G1 F1200
G1 X114.61 Y94.634 E.00554
G1 X114.952 Y94.393 E.01312
G1 X115.369 Y94.297 E.01342
G1 X134.64 Y94.297 E.60423
G1 X135.052 Y94.395 E.01328
G1 X135.39 Y94.634 E.01298
G1 X135.629 Y95.01 E.01397
G1 X135.703 Y95.388 E.01208
G1 X135.703 Y114.612 E.60276
G1 X135.629 Y114.99 E.01208
G1 X135.39 Y115.366 E.01397
G1 X135.048 Y115.607 E.01312
G1 X134.631 Y115.703 E.01342
G1 X115.378 Y115.703 E.60366
G1 X114.975 Y115.614 E.01294
G1 X114.615 Y115.371 E.01362
G1 X114.379 Y115.018 E.01331
G1 X114.297 Y114.622 E.01268
G1 X114.297 Y95.388 E.60307
G1 X114.371 Y95.01 E.01208
G1 X114.483 Y94.834 E.00654
M204 S1000
G1 X114.844 Y94.979 F10800
M204 S800
G1 F1200
G1 X114.872 Y94.907 E.00242
G1 X115.096 Y94.742 E.00872
G1 X115.39 Y94.674 E.00946
G1 X134.617 Y94.674 E.60285
G1 X134.907 Y94.743 E.00935
G1 X135.128 Y94.907 E.00863
G1 X135.326 Y95.402 E.01672
G1 X135.326 Y114.598 E.60188
G1 X135.128 Y115.093 E.01672
G1 X134.904 Y115.258 E.00872
G1 X134.61 Y115.326 E.00946
G1 X115.395 Y115.326 E.60247
G1 X115.145 Y115.275 E.008
G1 X114.895 Y115.116 E.00929
G1 X114.731 Y114.883 E.00893
G1 X114.674 Y114.603 E.00896
G1 X114.674 Y95.402 E.60203
G1 X114.821 Y95.034 E.01242
M204 S1000
G1 X115.138 Y95.178 F10800
M204 S800
G1 F1200
G1 X115.415 Y95.051 E.00955
G1 X134.592 Y95.051 E.60128
G1 X134.861 Y95.178 E.00933
G1 X134.949 Y95.41 E.00778
G1 X134.949 Y114.59 E.60138
G1 X134.862 Y114.822 E.00777
M73 P3 R39
G1 X134.585 Y114.949 E.00955
G1 X115.408 Y114.949 E.60128
G1 X115.172 Y114.856 E.00795
M73 Q3 S39
G1 X115.051 Y114.582 E.00939
G1 X115.051 Y95.41 E.60112
G1 X115.117 Y95.234 E.00589
M204 S1000
;WIPE_START
G1 F8640
G1 X115.138 Y95.178 E-.01381
G1 X115.415 Y95.051 E-.07036
G1 X118.515 Y95.051 E-.71583
;WIPE_END
G1 Z.6 F720
; printing object tesseract.stl id:0 copy 0
G1 X129.678 Y121.008 F10800
G1 Z.2 F720
G1 E.8 F2100
M204 S800
;TYPE:Support material
G1 F1200
G1 X128.885 Y121.845 E.03615
G1 X127.93 Y122.492 E.03617
G1 X126.859 Y122.918 E.03614
G1 X125.721 Y123.105 E.03616
G1 X124.57 Y123.042 E.03614
G1 X123.459 Y122.734 E.03615
G1 X122.441 Y122.194 E.03613
G1 X121.562 Y121.448 E.03615
G1 X120.864 Y120.53 E.03616
G1 X120.698 Y120.17 E.01243
G1 X130.182 Y120.17 E.29736
G1 X129.707 Y120.96 E.0289
M204 S1000
G1 X129.19 Y121.276 F10800
M204 S800
G1 F1200
G1 X129.19 Y120.51 E.02402
G1 X128.771 Y120.51 E.01314
G1 X128.771 Y121.472 E.03016
G1 X128.352 Y121.796 E.01661
G1 X128.352 Y120.51 E.04032
G1 X127.933 Y120.51 E.01314
G1 X127.933 Y122.08 E.04923
G1 X127.514 Y122.292 E.01472
G1 X127.514 Y120.51 E.05587
G1 X127.095 Y120.51 E.01314
G1 X127.095 Y122.459 E.06111
G1 X126.676 Y122.604 E.0139
G1 X126.676 Y120.51 E.06566
G1 X126.257 Y120.51 E.01314
G1 X126.257 Y122.673 E.06782
G1 X125.838 Y122.742 E.01331
G1 X125.838 Y120.51 E.06998
G1 X125.419 Y120.51 E.01314
G1 X125.419 Y122.749 E.0702
G1 X125 Y122.726 E.01316
G1 X125 Y120.51 E.06948
G1 X124.581 Y120.51 E.01314
G1 X124.581 Y122.693 E.06845
G1 X124.162 Y122.577 E.01363
G1 X124.162 Y120.51 E.06481
G1 X123.743 Y120.51 E.01314
G1 X123.743 Y122.461 E.06117
G1 X123.324 Y122.278 E.01434
G1 X123.324 Y120.51 E.05543
G1 X122.905 Y120.51 E.01314
G1 X122.905 Y122.056 E.04847
G1 X122.486 Y121.787 E.01561
G1 X122.486 Y120.51 E.04004
G1 X122.067 Y120.51 E.01314
G1 X122.067 Y121.432 E.02891
G1 X121.648 Y121.001 E.01885
G1 X121.648 Y120.34 E.02073
M204 S1000
;WIPE_START
G1 F8640
G1 X121.648 Y121.001 E-.15263
G1 X122.067 Y121.432 E-.1388
G1 X122.067 Y120.51 E-.21289
G1 X122.486 Y120.51 E-.09675
G1 X122.486 Y121.372 E-.19893
;WIPE_END
G1 Z.6 F720
G1 X109.83 Y109.907 F10800
G1 Z.2 F720
G1 E.8 F2100
M204 S800
G1 F1200
G1 X108.729 Y109.398 E.03803
G1 X107.827 Y108.7 E.03576
G1 X107.091 Y107.826 E.03583
G1 X106.58 Y106.866 E.0341
G1 X106.364 Y106.204 E.02183
G1 X106.249 Y105.692 E.01645
G1 X106.182 Y104.542 E.03612
G1 X106.249 Y103.912 E.01986
G1 X106.58 Y102.735 E.03834
G1 X107.092 Y101.772 E.0342
G1 X107.795 Y100.939 E.03418
G1 X108.253 Y100.556 E.01872
G1 X108.776 Y100.179 E.02021
G1 X109.83 Y99.692 E.0364
G1 X109.83 Y109.851 E.31853
M204 S1000
G1 X109.079 Y109.377 F10800
M204 S800
G1 F1200
G1 X109.079 Y100.411 E.28112
G1 X108.66 Y100.682 E.01565
G1 X108.66 Y108.915 E.25814
G1 X108.241 Y108.591 E.01661
G1 X108.241 Y101.009 E.23773
G1 X107.822 Y101.433 E.01869
G1 X107.822 Y108.167 E.21114
G1 X107.403 Y107.67 E.02038
G1 X107.403 Y101.929 E.18001
G1 X106.984 Y102.698 E.02746
G1 X106.984 Y106.903 E.13184
G1 X106.585 Y105.637 E.04162
G1 X106.565 Y103.327 E.07243
M204 S1000
;WIPE_START
G1 F8640
G1 X106.585 Y105.637 E-.53341
G1 X106.932 Y106.738 E-.26659
;WIPE_END
G1 Z.6 F720
G1 X126.11 Y86.389 F10800
G1 Z.2 F720
G1 E.8 F2100
M204 S800
G1 F1200
G1 X126.76 Y86.528 E.02084
G1 X127.793 Y86.971 E.03524
G1 X128.73 Y87.638 E.03606
G1 X129.505 Y88.488 E.03607
G1 X130.082 Y89.484 E.03609
G1 X130.193 Y89.83 E.01139
G1 X120.09 Y89.83 E.31677
G1 X120.672 Y88.668 E.04075
G1 X121.369 Y87.82 E.03442
G1 X122.283 Y87.1 E.03648
G1 X123.326 Y86.594 E.03635
G1 X124.451 Y86.323 E.03628
G1 X125.566 Y86.298 E.03497
G1 X126.055 Y86.379 E.01554
M204 S1000
G1 X129.609 Y89.66 F10800
M204 S800
G1 F1200
G1 X129.609 Y89.344 E.00991
G1 X129.19 Y88.646 E.02553
G1 X129.19 Y89.49 E.02646
G1 X128.771 Y89.49 E.01314
G1 X128.771 Y88.186 E.04089
G1 X128.352 Y87.785 E.01818
G1 X128.352 Y89.49 E.05346
G1 X127.933 Y89.49 E.01314
G1 X127.933 Y87.487 E.0628
G1 X127.514 Y87.22 E.01558
G1 X127.514 Y89.49 E.07117
G1 X127.095 Y89.49 E.01314
G1 X127.095 Y87.04 E.07682
G1 X126.676 Y86.861 E.01429
G1 X126.676 Y89.49 E.08243
G1 X126.257 Y89.49 E.01314
G1 X126.257 Y86.767 E.08538
G1 X125.838 Y86.688 E.01337
G1 X125.838 Y89.49 E.08785
G1 X125.419 Y89.49 E.01314
G1 X125.419 Y86.641 E.08933
G1 X125 Y86.651 E.01314
G1 X125 Y89.49 E.08901
G1 X124.581 Y89.49 E.01314
G1 X124.581 Y86.66 E.08873
G1 X124.495 Y86.662 E.0027
